docs/science/electromagnetism/Geomagnetisme.svg

<svg xmlns="http://www.w3.org/2000/svg" xmlns:svg="http://www.w3.org/2000/svg" xmlns:xlink="http://www.w3.org/1999/xlink" id="svg2" width="700" height="700" version="1.1"><defs><g id="needle"><path fill="#fff" stroke="none" d="M -8.4,0 L 0,16.9 L 8.4,0 L 0,-16.9 Z"/><path fill="red" stroke="none" d="M -8.4,0 L 0,16.9 L 8.4,0 Z"/><path fill="none" stroke="#000" stroke-linejoin="miter" stroke-miterlimit="10" stroke-width="1" d="M -8.4,0 L 0,16.9 L 8.4,0 L 0,-16.9 Z"/></g></defs><g fill="none" transform="translate(350, 350)" style="fill:none"><g stroke="#b3b3b3" stroke-width="1.8" transform="rotate(-23.5)"><path d="M -260.26,-0.00 C -260.26,-53.84 -210.93,-99.34 -143.50,-100.16 C -88.59,-100.83 -29.30,-67.51 -20.64,-48.00 C -17.55,-41.03 -15.44,-30.11 -15.44,0.00 C -15.44,30.11 -17.55,41.03 -20.64,48.00 C -29.30,67.51 -88.59,100.83 -143.50,100.16 C -210.93,99.34 -260.26,53.84 -260.26,0.00"/><path d="M -510.11,0.00 C -510.11,-29.48 -502.45,-58.66 -487.57,-85.27 C -421.54,-203.44 -239.43,-235.18 -102.50,-141.84 C -70.24,-119.85 -22.99,-75.99 -15.02,-48.00 C -12.76,-40.03 -11.25,-28.97 -11.25,0.00 C -11.25,28.97 -12.76,40.03 -15.02,48.00 C -22.99,75.99 -70.24,119.85 -102.50,141.84 C -102.50,141.84 -102.50,141.84 -102.50,141.84 C -239.43,235.18 -421.54,203.44 -487.57,85.27 C -502.45,58.66 -510.11,29.48 -510.11,0.00"/><path d="M -292.54,-399.27 C -153.94,-307.01 -85.73,-203.84 -61.50,-163.84 C -57.95,-157.98 -15.36,-87.03 -9.10,-48.00 C -7.71,-39.38 -6.82,-28.12 -6.82,-0.00 C -6.82,28.12 -7.71,39.38 -9.10,48.00 C -15.36,87.01 -57.93,157.94 -61.50,163.84 C -61.50,163.84 -61.50,163.84 -61.50,163.84 C -85.73,203.84 -153.94,307.01 -292.54,399.27"/><path d="M -97.51,-485.27 C -56.06,-350.52 -33.25,-245.35 -20.50,-173.80 C -17.18,-155.14 -4.96,-84.88 -3.04,-48.00 C -2.58,-39.06 -2.28,-27.70 -2.28,-0.00 C -2.28,27.70 -2.58,39.06 -3.04,48.00 C -4.96,84.88 -17.17,155.13 -20.50,173.80 C -33.25,245.34 -56.06,350.52 -97.51,485.27"/><path d="M 97.51,-485.27 C 56.06,-350.52 33.25,-245.35 20.50,-173.80 C 17.18,-155.14 4.96,-84.88 3.04,-48.00 C 2.58,-39.06 2.28,-27.70 2.28,-0.00 C 2.28,27.70 2.58,39.06 3.04,48.00 C 4.96,84.88 17.17,155.13 20.50,173.80 C 33.25,245.34 56.06,350.52 97.51,485.27"/><path d="M 292.54,-399.27 C 153.94,-307.01 85.73,-203.84 61.50,-163.84 C 57.95,-157.98 15.36,-87.03 9.10,-48.00 C 7.71,-39.38 6.82,-28.12 6.82,-0.00 C 6.82,28.12 7.71,39.38 9.10,48.00 C 15.36,87.01 57.93,157.94 61.50,163.84 C 61.50,163.84 61.50,163.84 61.50,163.84 C 85.73,203.84 153.94,307.01 292.54,399.27"/><path d="M 510.11,0.00 C 510.11,-29.48 502.45,-58.66 487.57,-85.27 C 421.54,-203.44 239.43,-235.18 102.50,-141.84 C 70.24,-119.85 22.99,-75.99 15.02,-48.00 C 12.76,-40.03 11.25,-28.97 11.25,-0.00 C 11.25,28.97 12.76,40.03 15.02,48.00 C 22.99,75.99 70.24,119.85 102.50,141.84 C 102.50,141.84 102.50,141.84 102.50,141.84 C 239.43,235.18 421.54,203.44 487.57,85.27 C 502.45,58.66 510.11,29.48 510.11,0.00 Z"/><path d="M 260.26,0.00 C 260.26,-53.84 210.93,-99.34 143.50,-100.16 C 88.59,-100.83 29.30,-67.51 20.64,-48.00 C 17.55,-41.03 15.44,-30.11 15.44,0.00 C 15.44,30.11 17.55,41.03 20.64,48.00 C 29.30,67.51 88.59,100.83 143.50,100.16 C 210.93,99.34 260.26,53.84 260.26,0.00 Z"/><use x="0" y="0" transform="translate(-202.27, 86.53) rotate(116.29)" xlink:href="#needle"/><use x="0" y="0" transform="translate(-202.27, -86.53) rotate(-116.29)" xlink:href="#needle"/><use x="0" y="0" transform="translate(202.27, 86.53) rotate(-116.29)" xlink:href="#needle"/><use x="0" y="0" transform="translate(202.27, -86.53) rotate(116.29)" xlink:href="#needle"/><circle cx="0" cy="0" r="175" style="fill:none;stroke:green;stroke-width:3;opacity:.95"/><rect width="60" height="96" x="-30" y="-48" style="fill:#fff;stroke:none"/><rect width="60" height="48" x="-30" y="0" style="fill:red;stroke:none"/><rect width="60" height="96" x="-30" y="-48" style="fill:none;stroke:#000;stroke-width:1.5"/><text x="0" y="0" transform="translate(0, -4)" xml:space="preserve" style="font-size:62px;font-style:normal;font-variant:normal;font-weight:400;font-stretch:normal;text-align:center;line-height:100%;writing-mode:lr-tb;text-anchor:middle;fill:red;fill-opacity:1;stroke:none;font-family:Calibri;-inkscape-font-specification:Calibri"><tspan id="tspan3180" x="0" y="0">S</tspan></text><text x="0" y="0" transform="translate(0, 44)" xml:space="preserve" style="font-size:62px;font-style:normal;font-variant:normal;font-weight:400;font-stretch:normal;text-align:center;line-height:100%;writing-mode:lr-tb;text-anchor:middle;fill:#fff;fill-opacity:1;stroke:none;font-family:Calibri;-inkscape-font-specification:Calibri"><tspan id="tspan3181" x="0" y="0">N</tspan></text><path d="M 0,-500 L 0,500" style="fill:none;stroke:#f0f;stroke-width:3;stroke-linecap:butt;stroke-dasharray:24.1,6,3,6;stroke-dashoffset:0"/></g><path d="M 0,-500 L 0,500" style="fill:none;stroke:#00f;stroke-width:1.9;stroke-linecap:butt;stroke-dasharray:15.3,3.8,1.9,3.8;stroke-dashoffset:0"/><text id="text3224" x="0" y="0" transform="translate(-110,-170)" xml:space="preserve" style="font-size:20.1734581px;font-style:normal;font-variant:normal;font-weight:400;font-stretch:normal;text-align:start;line-height:100%;writing-mode:lr-tb;text-anchor:start;fill:#f0f;fill-opacity:1;stroke:none;stroke-width:1px;stroke-linecap:butt;stroke-linejoin:miter;stroke-opacity:1;font-family:Calibri;-inkscape-font-specification:Calibri"><tspan id="tspan3226" x="-60" y="5">地磁南极</tspan></text><text id="text3228" x="0" y="0" transform="translate(82, 175)" xml:space="preserve" style="font-size:20.1734581px;font-style:normal;font-variant:normal;font-weight:400;font-stretch:normal;text-align:start;line-height:100%;writing-mode:lr-tb;text-anchor:start;fill:#f0f;fill-opacity:1;stroke:none;stroke-width:1px;stroke-linecap:butt;stroke-linejoin:miter;stroke-opacity:1;font-family:Calibri;-inkscape-font-specification:Calibri"><tspan id="tspan3230" x="5" y="5">地磁北极</tspan></text><text id="text3232" x="0" y="0" transform="translate(6,-181)" xml:space="preserve" style="font-size:20.1734581px;font-style:normal;font-variant:normal;font-weight:400;font-stretch:normal;text-align:start;line-height:100%;writing-mode:lr-tb;text-anchor:start;fill:#00f;fill-opacity:1;stroke:none;stroke-width:1px;stroke-linecap:butt;stroke-linejoin:miter;stroke-opacity:1;font-family:Calibri;-inkscape-font-specification:Calibri"><tspan id="tspan3234" x="5" y="-5">地理北极</tspan></text><text id="text3236" x="0" y="0" transform="translate(-25,194)" xml:space="preserve" style="font-size:20.1734581px;font-style:normal;font-variant:normal;font-weight:400;font-stretch:normal;text-align:start;line-height:100%;writing-mode:lr-tb;text-anchor:start;fill:#00f;fill-opacity:1;stroke:none;stroke-width:1px;stroke-linecap:butt;stroke-linejoin:miter;stroke-opacity:1;font-family:Calibri;-inkscape-font-specification:Calibri"><tspan id="tspan3238" x="-70" y="10">地理南极</tspan></text></g></svg>

<svg xmlns:xlink="http://www.w3.org/1999/xlink" viewBox="0 0 700 700"><defs><g id="a"><path fill="#fff" d="M-8.4 0 0 16.9 8.4 0 0-16.9Z"/><path fill="red" d="M-8.4 0 0 16.9 8.4 0Z"/><path fill="none" stroke="#000" stroke-miterlimit="10" d="M-8.4 0 0 16.9 8.4 0 0-16.9Z"/></g></defs><g fill="none" style="fill:none"><g stroke="#b3b3b3" stroke-width="1.8" transform="rotate(-23.5 1016.345 -666.345)"><path d="M-260.3 0c0-53.8 49.4-99.3 116.8-100.2 55-.6 114.2 32.7 122.9 52.2 3 7 5.2 17.9 5.2 48s-2.2 41-5.2 48c-8.7 19.5-68 52.8-122.9 52.2-67.4-.9-116.8-46.4-116.8-100.2"/><path d="M-510.1 0c0-29.5 7.7-58.7 22.5-85.3 66-118.1 248.2-149.9 385.1-56.5C-70.2-119.8-23-76-15-48c2.2 8 3.8 19 3.8 48s-1.6 40-3.8 48c-8 28-55.2 71.9-87.5 93.8-137 93.4-319 61.6-385-56.5A174 174 0 0 1-510.2 0"/><path d="M-292.5-399.3C-154-307-85.7-203.8-61.5-163.8-58-158-15.4-87-9.1-48c1.4 8.6 2.3 19.9 2.3 48s-1 39.4-2.3 48c-6.3 39-48.8 110-52.4 115.8-24.2 40-92.4 143.2-231 235.5"/><path d="M-97.5-485.3c41.4 134.8 64.3 240 77 311.5C-17.2-155.1-5-84.8-3-48c.4 9 .7 20.3.7 48s-.3 39-.7 48c-2 36.9-14.2 107.1-17.5 125.8a2638 2638 0 0 1-77 311.5m195-970.6a2637 2637 0 0 0-77 311.5C17.2-155.1 5-84.8 3-48c-.4 9-.7 20.3-.7 48s.3 39 .7 48c2 36.9 14.2 107.1 17.5 125.8a2638 2638 0 0 0 77 311.5"/><path d="M292.5-399.3C154-307 85.7-203.8 61.5-163.8 58-158 15.4-87 9.1-48 7.7-39.4 6.8-28.1 6.8 0s1 39.4 2.3 48c6.3 39 48.8 110 52.4 115.8 24.2 40 92.4 143.2 231 235.5"/><path d="M510.1 0c0-29.5-7.7-58.7-22.5-85.3-66-118.1-248.2-149.9-385.1-56.5C70.2-119.8 23-76 15-48c-2.2 8-3.7 19-3.7 48s1.5 40 3.7 48c8 28 55.2 71.9 87.5 93.8 137 93.4 319 61.6 385-56.5A174 174 0 0 0 510.2 0Z"/><path d="M260.3 0c0-53.8-49.4-99.3-116.8-100.2-55-.6-114.2 32.7-122.9 52.2-3 7-5.2 17.9-5.2 48s2.2 41 5.2 48c8.7 19.5 68 52.8 122.9 52.2C210.9 99.3 260.3 53.8 260.3 0Z"/><use xlink:href="#a" transform="rotate(116.29 -128.018 -19.576)"/><use xlink:href="#a" transform="rotate(243.71 -128.018 19.576)"/><use xlink:href="#a" transform="rotate(243.71 128.018 -19.576)"/><use xlink:href="#a" transform="rotate(116.29 128.018 19.576)"/><circle r="175" style="fill:none;stroke:green;stroke-width:3;opacity:.95"/><path stroke="none" d="M-30-48h60v96h-60z" style="fill:#fff;stroke:none"/><path stroke="none" d="M-30 0h60v48h-60z" style="fill:red;stroke:none"/><path d="M-30-48h60v96h-60z" style="fill:none;stroke:#000;stroke-width:1.5"/><text xml:space="preserve" style="font-size:62px;font-style:normal;font-variant:normal;font-weight:400;font-stretch:normal;text-align:center;line-height:100%;writing-mode:lr-tb;text-anchor:middle;fill:red;fill-opacity:1;stroke:none;font-family:Calibri;-inkscape-font-specification:Calibri" transform="translate(0 -4)"><tspan x="0" y="0">S</tspan></text><text xml:space="preserve" style="font-size:62px;font-style:normal;font-variant:normal;font-weight:400;font-stretch:normal;text-align:center;line-height:100%;writing-mode:lr-tb;text-anchor:middle;fill:#fff;fill-opacity:1;stroke:none;font-family:Calibri;-inkscape-font-specification:Calibri" transform="translate(0 44)"><tspan x="0" y="0">N</tspan></text><path d="M0-500V500" style="fill:none;stroke:#f0f;stroke-width:3;stroke-linecap:butt;stroke-dasharray:24.1,6,3,6;stroke-dashoffset:0"/></g><path d="M0-500V500" style="fill:none;stroke:#00f;stroke-width:1.9;stroke-linecap:butt;stroke-dasharray:15.3,3.8,1.9,3.8;stroke-dashoffset:0" transform="translate(350 350)"/><text xml:space="preserve" style="font-size:20.1734581px;font-style:normal;font-variant:normal;font-weight:400;font-stretch:normal;text-align:start;line-height:100%;writing-mode:lr-tb;text-anchor:start;fill:#f0f;fill-opacity:1;stroke:none;stroke-width:1px;stroke-linecap:butt;stroke-linejoin:miter;stroke-opacity:1;font-family:Calibri;-inkscape-font-specification:Calibri" transform="translate(240 180)"><tspan x="-60" y="5">地磁南极</tspan></text><text xml:space="preserve" style="font-size:20.1734581px;font-style:normal;font-variant:normal;font-weight:400;font-stretch:normal;text-align:start;line-height:100%;writing-mode:lr-tb;text-anchor:start;fill:#f0f;fill-opacity:1;stroke:none;stroke-width:1px;stroke-linecap:butt;stroke-linejoin:miter;stroke-opacity:1;font-family:Calibri;-inkscape-font-specification:Calibri" transform="translate(432 525)"><tspan x="5" y="5">地磁北极</tspan></text><text xml:space="preserve" style="font-size:20.1734581px;font-style:normal;font-variant:normal;font-weight:400;font-stretch:normal;text-align:start;line-height:100%;writing-mode:lr-tb;text-anchor:start;fill:#00f;fill-opacity:1;stroke:none;stroke-width:1px;stroke-linecap:butt;stroke-linejoin:miter;stroke-opacity:1;font-family:Calibri;-inkscape-font-specification:Calibri" transform="translate(356 169)"><tspan x="5" y="-5">地理北极</tspan></text><text xml:space="preserve" style="font-size:20.1734581px;font-style:normal;font-variant:normal;font-weight:400;font-stretch:normal;text-align:start;line-height:100%;writing-mode:lr-tb;text-anchor:start;fill:#00f;fill-opacity:1;stroke:none;stroke-width:1px;stroke-linecap:butt;stroke-linejoin:miter;stroke-opacity:1;font-family:Calibri;-inkscape-font-specification:Calibri" transform="translate(325 544)"><tspan x="-70" y="10">地理南极</tspan></text></g></svg>
